actions/scalable/document-edit.svg

<svg width="48" version="1.1" xmlns="http://www.w3.org/2000/svg" height="48" xmlns:xlink="http://www.w3.org/1999/xlink">
<defs>
<linearGradient id="linearGradient3770">
<stop offset="0" style="stop-color:#ffda7d"/>
<stop offset="0.30000001" style="stop-color:#ffda7d"/>
<stop offset="0.30000001" style="stop-color:#ffc941"/>
<stop offset="0.60000002" style="stop-color:#ffc941"/>
<stop offset="0.60000002" style="stop-color:#dc9e00"/>
<stop offset="1" style="stop-color:#dc9e00"/>
</linearGradient>
<linearGradient id="linearGradient880">
<stop offset="0" style="stop-color:#666"/>
<stop offset="1"/>
</linearGradient>
<linearGradient gradientTransform="matrix(0.75722601,0.75722601,-1.0350281,1.0350281,15.788394,-28.145285)" xlink:href="#linearGradient3770" id="linearGradient3849" y1="23.72045" x1="34.265" y2="23.72045" gradientUnits="userSpaceOnUse" x2="45.4021"/>
<linearGradient xlink:href="#linearGradient880" id="linearGradient882" y1="39.928188" x1="3.4801226" y2="44.521946" x2="8.0639439" gradientUnits="userSpaceOnUse"/>
</defs>
<g style="stroke-width:1.024">
<path style="opacity:.5" d="M 5.372,6.628 V 43.3718 H 44.2077 L 44.372,6.626 31.6432,6.6279 Z"/>
<path style="fill:#ecf0f1" d="m 4.5719,5.628 v 36.7438 h 38.8357 l .1643,-36.7458 -12.7288,.0019 z "/>
</g>
<g style="fill-rule:evenodd">
<g style="fill:#7f8c8d">
<rect width="26.684752" x="10.630051" y="16.781309" height="2.9221342"/>
<rect width="20.151466" x="13.91404" y="10.937055" height="2.9221342"/>
<rect width="26.684752" x="10.620342" y="22.625603" height="2.9221342"/>
<rect width="26.684752" x="10.670486" y="28.469894" height="2.9221342"/>
<rect width="26.684752" x="10.660777" y="34.314095" height="2.9221342"/>
</g>
<path style="fill:#d57000" d="m 40.8133,.0224 c -0.789224,0.107445 -1.73142,0.585611 -2.34536,1.19913 l -5.078,5.0282 8.3699,8.3798 5.078,-5.0282 c 1.00968,-1.009 1.51051,-2.91817 0.849442,-3.58027 l -5.7495,-5.7491 c -0.241174,-0.241556 -0.650899,-0.314072 -1.12444,-0.249602 Z "/>
<path style="fill:#d0d0d0" d="m 33.4095,6.2693 -5.2783,5.2591 8.3703,8.3794 5.2779,-5.2587 z "/>
<path style="fill:url(#linearGradient3849)" d="m 28.1302,11.5225 -21.8351,21.7182 8.4354,8.4054 21.7695,-21.7437 Z "/>
<path style="fill:#e9d078" d="m 6.3484,33.274 -6.335,14.726 14.7048,-6.346 -8.3699,-8.3798 Z "/>
<path style="fill:url(#linearGradient882)" d="m 3.4802,39.9281 -3.4668,8.0719 8.0505,-3.4781 -4.5838,-4.5938 Z "/>
</g>
</svg>

<svg width="48" version="1.1" xmlns="http://www.w3.org/2000/svg" height="48" xmlns:xlink="http://www.w3.org/1999/xlink">
<defs>
<linearGradient id="linearGradient21">
<stop offset="0" style="stop-color:#dbc457"/>
<stop offset="1" style="stop-color:#f0da94"/>
</linearGradient>
<linearGradient id="linearGradient880">
<stop offset="0" style="stop-color:#666"/>
<stop offset="1"/>
</linearGradient>
<linearGradient id="linearGradient19">
<stop offset="0" style="stop-color:#bababa"/>
<stop offset="1" style="stop-color:#e3e3e3"/>
</linearGradient>
<linearGradient id="linearGradient3770">
<stop offset="0" style="stop-color:#ffda7d"/>
<stop offset="0.3" style="stop-color:#ffda7d"/>
<stop offset="0.3" style="stop-color:#ffc941"/>
<stop offset="0.68" style="stop-color:#ffc941"/>
<stop offset="0.68" style="stop-color:#dc9e00"/>
<stop offset="1" style="stop-color:#dc9e00"/>
</linearGradient>
<linearGradient id="linearGradient17">
<stop offset="0" style="stop-color:#b25c00"/>
<stop offset="1" style="stop-color:#fa8600"/>
</linearGradient>
<linearGradient xlink:href="#linearGradient21" id="linearGradient22" y1="41.654" x1="14.7182" y2="33.287865" x2="6.3424349" gradientUnits="userSpaceOnUse"/>
<linearGradient xlink:href="#linearGradient880" id="linearGradient882" y1="39.928188" x1="3.4801226" y2="44.521946" x2="8.0639439" gradientUnits="userSpaceOnUse"/>
<linearGradient xlink:href="#linearGradient19" id="linearGradient20" y1="19.902399" x1="36.5" y2="11.525956" x2="28.133652" gradientUnits="userSpaceOnUse"/>
<linearGradient xlink:href="#linearGradient17" id="linearGradient18" y1="14.62953" x1="41.759838" y2="6.2693" x2="33.4095" gradientUnits="userSpaceOnUse"/>
<linearGradient gradientTransform="matrix(0.75722601,0.75722601,-1.0350281,1.0350281,15.788394,-28.145285)" xlink:href="#linearGradient3770" id="linearGradient3849" y1="23.72045" x1="34.265" y2="23.72045" gradientUnits="userSpaceOnUse" x2="45.4021"/>
</defs>
<g style="stroke-width:1.024">
<path style="opacity:.5" d="M 5.372,6.628 V 43.3718 H 44.2077 L 44.372,6.626 31.6432,6.6279 Z"/>
<path style="fill:#ecf0f1" d="M 4.5719,5.628 V 42.3718 H 43.4076 L 43.5719,5.626 30.8431,5.6279 Z"/>
</g>
<g style="fill-rule:evenodd">
<g style="fill:#7f8c8d">
<rect width="26.684752" x="10.630051" y="16.781309" height="2.9221342"/>
<rect width="20.151466" x="13.91404" y="10.937055" height="2.9221342"/>
<rect width="26.684752" x="10.620342" y="22.625603" height="2.9221342"/>
<rect width="26.684752" x="10.670486" y="28.469894" height="2.9221342"/>
<rect width="26.684752" x="10.660777" y="34.314095" height="2.9221342"/>
</g>
<path style="fill:url(#linearGradient18)" d="m 40.8133,0.0224 c -0.789224,0.107445 -1.73142,0.585611 -2.34536,1.19913 l -5.078,5.0282 8.3699,8.3798 5.078,-5.0282 c 1.00968,-1.009 1.51051,-2.91817 0.849442,-3.58027 l -5.7495,-5.7491 C 41.696608,0.030404 41.286883,-0.042112 40.813342,0.022358 Z"/>
<path style="fill:url(#linearGradient20)" d="m 33.4095,6.2693 -5.2783,5.2591 8.3703,8.3794 5.2779,-5.2587 z"/>
<path style="fill:url(#linearGradient3849)" d="M 28.1302,11.5225 6.2951,33.2407 14.7305,41.6461 36.5,19.9024 Z"/>
<path style="fill:url(#linearGradient22)" d="M 6.3484,33.274 0.0134,48 14.7182,41.654 6.3483,33.2742 Z"/>
<path style="fill:url(#linearGradient882)" d="M 3.4802,39.9281 0.0134,48 8.0639,44.5219 3.4801,39.9281 Z"/>
</g>
</svg>
